src/images/mediaLogos/darkTheme/FleetLeasing.svg

<svg width="117" height="14" viewBox="0 0 117 14" fill="none" xmlns="http://www.w3.org/2000/svg">
<path d="M95.2432 1.02302C95.5876 1.02302 95.9159 0.965857 96.2105 1.04207C96.4128 1.09484 96.5975 1.31029 96.7382 1.49203C97.6645 2.67921 98.5746 3.87813 99.4951 5.06971C100.416 6.26129 101.317 7.40597 102.218 8.5785C102.648 9.13691 103.052 9.71438 103.477 10.2757C103.59 10.3762 103.715 10.4628 103.848 10.5337V1.03767H105.167C105.176 1.21209 105.189 1.36598 105.189 1.51988C105.189 5.19771 105.189 8.87554 105.189 12.5534C105.189 13.1689 104.836 13.4078 104.26 13.1264C103.975 12.98 103.725 12.7735 103.527 12.5211C102.611 11.3706 101.72 10.1995 100.822 9.03578L98.0368 5.44052C97.6352 4.92021 97.2424 4.39404 96.8349 3.87812C96.747 3.80459 96.6481 3.74525 96.5418 3.70225V12.6648C96.5418 13.1733 96.5418 13.1851 96.0347 13.1821C95.1553 13.1821 95.2066 13.3082 95.208 12.3687C95.2139 8.70161 95.2139 5.03746 95.208 1.37624C95.2197 1.26485 95.2329 1.15933 95.2432 1.02302Z" fill="#ECECEC"/>
<path d="M113.315 7.35295H117.001V8.04034C117.001 9.24511 117.001 10.4514 117.001 11.6576C117.001 11.9507 116.867 12.1046 116.627 12.2512C115.86 12.7041 115.015 13.0089 114.135 13.1496C113.46 13.2684 112.749 13.1921 112.056 13.2229C111.095 13.2639 110.141 13.0371 109.302 12.5678C108.201 11.9645 107.326 11.0194 106.81 9.87535C106.194 8.55625 106.199 7.19759 106.284 5.81987C106.316 5.30395 106.514 4.78511 106.702 4.29265C106.974 3.53545 107.434 2.86004 108.04 2.33013C108.578 1.89224 109.169 1.52345 109.798 1.23235C111.156 0.581599 112.623 0.690055 114.049 0.845415C115.037 0.953874 115.923 1.43168 116.702 2.07071C116.738 2.10002 116.796 2.16158 116.785 2.1821C116.669 2.48679 116.522 2.77857 116.346 3.0527C116.281 3.14064 115.991 3.13917 115.849 3.07615C115.478 2.91493 115.147 2.6643 114.776 2.50747C113.75 2.06778 112.724 1.88457 111.576 2.10149C110.578 2.28909 109.74 2.68775 109.073 3.38687C108.447 4.04788 108.018 4.85253 107.962 5.80081C107.931 6.32698 107.748 6.85756 107.795 7.37054C107.941 9.0194 108.475 10.5173 109.993 11.4055C110.557 11.7391 111.182 11.9566 111.831 12.0452C112.48 12.1338 113.141 12.0917 113.773 11.9214C114.29 11.7956 114.797 11.6355 115.292 11.4421C115.38 11.4003 115.457 11.339 115.518 11.2628C115.578 11.1866 115.621 11.0975 115.642 11.0024C115.679 10.2857 115.663 9.56609 115.657 8.84792C115.657 8.57384 115.491 8.46098 115.229 8.46245C114.752 8.46245 114.276 8.44926 113.801 8.46245C113.457 8.47418 113.303 8.33494 113.317 7.99197C113.322 7.78532 113.315 7.58159 113.315 7.35295Z" fill="#ECECEC"/>
<path d="M71.5898 12.93C73.2021 8.97269 74.8026 5.01541 76.4339 1.0039C76.9395 1.0039 77.4598 0.984847 77.9757 1.01856C78.0871 1.02588 78.2278 1.20616 78.285 1.3366C78.6152 2.10168 78.9338 2.87261 79.2406 3.64941C79.4619 4.2049 79.6495 4.77504 79.8738 5.33053C80.098 5.88601 80.3662 6.44003 80.5963 7.00138C80.8264 7.56273 81.036 8.14313 81.2529 8.71181C81.4669 9.25557 81.6926 9.79493 81.9125 10.3372C82.0869 10.7696 82.2555 11.2049 82.4343 11.6358C82.6131 12.0667 82.8065 12.5152 83.0279 13.0296C82.4782 13.0663 81.9726 13.1762 81.4816 12.9358C81.3861 12.8665 81.3152 12.7684 81.2793 12.6559C80.9686 11.9231 80.6637 11.177 80.3604 10.4369C80.334 10.3709 80.3384 10.2903 80.3135 10.2258C80.1991 9.91364 80.0496 9.685 79.6451 9.6894C78.0959 9.70699 76.5452 9.70406 74.9946 9.6894C74.6311 9.6894 74.3937 9.81251 74.2617 10.1525C73.9686 10.9264 73.6682 11.6974 73.3926 12.4756C73.246 12.9036 73.0995 13.0487 72.6378 13.0619C72.3139 13.0736 71.99 13.0619 71.6675 13.0619L71.5898 12.93ZM77.2136 2.65716C77.0743 3.08367 76.9849 3.40611 76.8633 3.71683C76.5702 4.47311 76.258 5.22647 75.9502 5.97835C75.7113 6.56461 75.4299 7.13476 75.2408 7.73714C75.1499 8.03027 74.8011 8.29702 75.0356 8.66783H79.6173C79.031 6.69652 78.09 4.92601 77.5067 3.02944C77.4774 2.91512 77.3543 2.83011 77.2136 2.65716Z" fill="#ECECEC"/>
<path d="M70.6189 0.896527V2.13941H64.7856V6.32094C64.9658 6.33266 65.1212 6.35318 65.2751 6.35318H69.1225C69.5959 6.35318 69.6076 6.36637 69.6076 6.85297V7.48467H64.8017V11.8816H70.6335C70.6473 12.2579 70.6414 12.6346 70.616 13.0102C70.6072 13.0806 70.3683 13.1714 70.2349 13.1729C68.7941 13.1846 67.3534 13.1802 65.9141 13.1802C65.1446 13.1802 64.3752 13.1685 63.6072 13.1802C63.2789 13.1876 63.1807 13.0498 63.1807 12.7405C63.1807 8.90245 63.1807 5.06437 63.1807 1.2263C63.1807 0.983001 63.2437 0.833506 63.528 0.834972C65.7988 0.834972 68.0691 0.834972 70.3389 0.834972C70.4334 0.850181 70.5268 0.87073 70.6189 0.896527V0.896527Z" fill="#ECECEC"/>
<path d="M18.998 6.35073H23.7203C23.7452 6.73034 23.7687 7.08356 23.7965 7.49248H19.0112V11.8895H24.8606C24.8743 12.2637 24.8684 12.6385 24.843 13.0122C24.8342 13.0825 24.5982 13.1778 24.4663 13.1792C23.2586 13.1924 22.0495 13.1866 20.8418 13.1866C19.8422 13.1866 18.8411 13.1778 17.8401 13.1866C17.5235 13.1866 17.4004 13.0752 17.4004 12.763C17.4004 8.9259 17.4004 5.08929 17.4004 1.25317C17.4004 0.987883 17.4766 0.844249 17.7741 0.845714C20.0313 0.845714 22.2884 0.845714 24.5455 0.845714C24.644 0.853982 24.742 0.868673 24.8386 0.889687V2.12963H18.998V6.35073Z" fill="#ECECEC"/>
<path d="M26.1307 0.884788C26.3212 0.870132 26.4634 0.849609 26.607 0.849609H33.1615C33.673 0.849609 33.6964 0.875993 33.695 1.38751C33.695 1.48424 33.695 1.58391 33.695 1.68064C33.7316 2.0368 33.5601 2.15112 33.2216 2.14965C31.5492 2.14086 29.8769 2.14965 28.2046 2.14965C28.0375 2.14965 27.8704 2.17017 27.6726 2.18336C27.6564 2.34458 27.6345 2.4765 27.633 2.60254C27.633 3.69886 27.6418 4.80103 27.6257 5.89148C27.6257 6.24031 27.7488 6.36636 28.0961 6.36343C29.4152 6.3517 30.7343 6.36343 32.0534 6.36343H32.5078V7.48319C32.3524 7.49198 32.2147 7.50517 32.0681 7.50664H28.1489C27.7092 7.50664 27.6345 7.57406 27.6345 8.01229C27.6345 9.14574 27.6345 10.2787 27.6345 11.4112C27.6345 11.5313 27.6477 11.6515 27.6579 11.8289C27.8435 11.8679 28.0315 11.8939 28.2207 11.9065C29.8799 11.9065 31.5404 11.9065 33.204 11.9065C33.6744 11.9065 33.7008 11.9359 33.6994 12.4049C33.6994 13.1875 33.6994 13.1875 32.9167 13.1875H26.6188C26.1322 13.1875 26.1102 13.1699 26.1102 12.7053C26.1102 8.91612 26.1102 5.12738 26.1102 1.33914C26.1058 1.20137 26.1204 1.06946 26.1307 0.884788Z" fill="#ECECEC"/>
<path d="M90.3441 3.04238C90.0774 2.93071 89.8201 2.79788 89.5746 2.64519C88.855 2.11608 88.0621 1.8552 87.1739 1.97392C86.0981 2.12048 85.2803 2.80934 85.2011 3.87927C85.1454 4.64435 85.7463 5.25553 86.3135 5.52374C86.9584 5.8286 87.6473 6.03819 88.3068 6.31373C88.919 6.55179 89.5162 6.82686 90.0949 7.13744C90.3674 7.29207 90.5993 7.50914 90.7715 7.77081C90.9437 8.03248 91.0514 8.33128 91.0857 8.64267C91.1194 8.88011 91.2411 9.10875 91.2528 9.34472C91.3305 10.8587 90.2869 12.4314 88.8697 12.9678C87.917 13.3284 86.9145 13.3035 85.9515 13.1584C84.9833 13.0092 84.0876 12.556 83.3939 11.8642C83.2357 11.7088 83.2049 11.6092 83.3822 11.4567C83.4653 11.3689 83.5363 11.2703 83.5933 11.1636C83.8292 10.806 84.1151 10.743 84.4727 10.9848C85.0523 11.412 85.6986 11.7403 86.3854 11.9565C87.3292 12.2233 88.7304 11.8627 89.324 11.0302C89.8253 10.3296 89.9323 9.56457 89.5219 8.7951C89.3739 8.51935 89.1467 8.29422 88.8697 8.14874C88.3127 7.88053 87.7074 7.70904 87.1328 7.47747C86.3604 7.16528 85.5118 7.01578 84.8552 6.45151C84.1986 5.88723 83.775 5.25699 83.8292 4.36294C83.8512 3.99946 83.7662 3.60813 83.8703 3.27396C84.0103 2.82102 84.2291 2.39632 84.5166 2.01935C85.3198 0.993389 86.4469 0.713449 87.7059 0.742762C88.6293 0.763281 89.4926 0.9289 90.2884 1.4199C90.9099 1.80243 90.9787 1.99297 90.6123 2.61441C90.5449 2.72873 90.4789 2.8284 90.3441 3.04238Z" fill="#ECECEC"/>
<path d="M7.16779 6.5828V7.78024C6.94501 7.76998 6.75594 7.75386 6.5654 7.75386C5.29517 7.75386 4.02493 7.75386 2.75469 7.75386C2.16842 7.75386 2.08488 7.8374 2.08488 8.43099V12.9745H0.472656C0.472656 9.08907 0.472656 5.24172 0.472656 1.39583C0.472656 0.838874 0.472656 0.827148 1.04719 0.827148H7.60163C8.12047 0.827148 8.13952 0.849135 8.13659 1.36065C8.13659 2.05098 8.13659 2.04951 7.42868 2.04951C5.87801 2.04951 4.32734 2.04951 2.77814 2.04951C2.54568 2.06955 2.31528 2.10877 2.08928 2.16676V2.99046C2.08928 4.00177 2.08928 5.01307 2.08928 6.02438C2.08928 6.51244 2.13911 6.56374 2.6389 6.56374H6.70464C6.84681 6.56228 6.99045 6.574 7.16779 6.5828Z" fill="#ECECEC"/>
<path d="M40.3166 12.9491H38.6823V2.16479H34.7764V0.855957H44.3032V2.12962H40.3796C40.3257 2.34879 40.2885 2.57171 40.2682 2.79649C40.2623 5.95059 40.2623 9.10469 40.2682 12.2588C40.2667 12.4742 40.2975 12.6897 40.3166 12.9491Z" fill="#ECECEC"/>
<path d="M46.3452 5.79352L46.3056 5.5942C45.6724 5.43004 45.4057 4.93025 45.1521 4.42167C44.9469 4.01421 44.9279 3.57158 44.925 3.11869C44.9144 2.73865 45.0053 2.36265 45.1882 2.02934C45.371 1.69602 45.6394 1.41741 45.9656 1.22213C46.3963 0.937989 46.8823 0.748364 47.3916 0.665753C47.9009 0.583141 48.4219 0.609421 48.9203 0.74286C49.297 0.832265 49.6532 0.889427 49.9463 1.16937C49.9932 1.21627 50.1046 1.19575 50.2013 1.20747C50.2277 1.06091 50.2526 0.933393 50.2761 0.804415L50.3699 0.813209V3.14214L50.2966 3.1656C50.2039 2.9234 50.128 2.67512 50.0694 2.42251C49.9712 1.83624 49.5843 1.49328 49.1153 1.21627C48.614 0.923133 48.0424 0.923135 47.5206 1.03013C47.1986 1.09336 46.8972 1.23543 46.6435 1.44363C46.3898 1.65183 46.1916 1.91966 46.0667 2.22318C45.8868 2.65825 45.8329 3.13519 45.9113 3.59943C46.0066 4.40554 46.3877 5.08414 47.1117 5.4872C47.4342 5.66601 47.8446 5.69679 48.2843 5.81697C48.1952 5.87704 48.0992 5.92625 47.9984 5.96354C47.654 6.02363 47.3008 6.04562 46.9622 6.12916C46.6646 6.20341 46.3853 6.33798 46.1418 6.52454C45.8982 6.7111 45.6956 6.94568 45.5464 7.21375C45.12 7.96545 44.9118 8.82127 44.9455 9.68485C44.9938 10.9761 45.5317 12.0299 46.7233 12.5869C47.4641 12.9473 48.3012 13.0598 49.1109 12.9078C49.7103 12.795 50.2834 12.6748 50.7876 12.348C51.1322 12.1406 51.4255 11.8579 51.6453 11.5211C51.8651 11.1842 52.0058 10.802 52.0569 10.403C52.2034 9.32137 51.8781 8.47422 50.9957 7.84545C50.67 7.60392 50.2698 7.48452 49.865 7.50809C49.4602 7.53167 49.0766 7.69673 48.7811 7.97443C48.6111 8.14298 48.5451 8.42439 48.4543 8.66182C48.4256 8.77634 48.4118 8.89407 48.4132 9.01211L48.2872 9.06488C48.2183 8.94909 48.0849 8.83037 48.0923 8.71898C48.1392 7.94071 48.337 7.22547 49.1563 6.90596C49.5714 6.73632 50.0025 6.60913 50.4432 6.52635C51.0646 6.42083 51.6992 6.39444 52.3265 6.32263C53.3159 6.21123 53.7614 5.7774 53.9534 4.76024C53.9746 4.69854 54.0048 4.64027 54.0428 4.58728L54.163 4.59608C54.163 5.00793 54.144 5.42271 54.163 5.83456C54.2026 6.51463 53.8127 6.95726 53.2836 7.23134C52.9187 7.42187 52.4541 7.4336 52.0305 7.49955C51.8192 7.51569 51.6071 7.51569 51.3958 7.49955L51.3607 7.60068C51.508 7.73934 51.6475 7.88614 51.7784 8.04038C52.193 8.58348 52.4203 9.24638 52.4262 9.92962C52.4702 11.237 51.8561 12.1516 50.7935 12.7847C50.3933 13.0236 49.8789 13.0617 49.4407 13.2464C48.721 13.5513 47.9662 13.5161 47.2422 13.4003C45.992 13.201 44.8077 12.7964 44.0529 11.6547C43.7598 11.215 43.5047 10.7665 43.515 10.2154C43.5253 9.66433 43.4285 9.09272 43.5648 8.57828C43.8052 7.6681 44.2786 6.8532 45.1228 6.34461C45.5202 6.1393 45.9282 5.95534 46.3452 5.79352V5.79352Z" fill="#ECECEC"/>
<path d="M10.914 11.8952H16.2139C16.2294 12.2484 16.2241 12.6023 16.1977 12.9549C16.1875 13.0428 15.9823 13.1689 15.8621 13.1718C15.1791 13.1923 14.4961 13.182 13.8102 13.182H9.74883C9.34284 13.182 9.22266 13.0604 9.22266 12.6647C9.22266 8.89988 9.22266 5.13557 9.22266 1.37176C9.22266 1.27649 9.23438 1.18269 9.24318 1.05225H10.7997V1.62679C10.7997 4.85124 10.7997 8.07911 10.7997 11.3104C10.8208 11.5083 10.859 11.704 10.914 11.8952V11.8952Z" fill="#ECECEC"/>
<path d="M55.0108 1.04053H56.4764C56.4852 1.2296 56.5013 1.39668 56.5013 1.5623C56.5013 4.81411 56.5013 8.06543 56.5013 11.3163C56.5013 11.8322 56.5394 11.8762 57.0656 11.8776C58.5166 11.8776 59.9691 11.8776 61.4201 11.8776C61.5872 11.8776 61.7557 11.8967 61.9756 11.9084C61.9756 12.2733 61.9888 12.609 61.9756 12.9446C61.9609 13.207 61.7411 13.1791 61.5593 13.1791H56.9791C56.4295 13.1791 55.8814 13.1791 55.3317 13.1791C55.0884 13.1791 54.9756 13.0941 54.9756 12.8391C54.9756 8.96682 54.9756 5.09454 54.9756 1.22227C54.9838 1.16106 54.9955 1.10038 55.0108 1.04053V1.04053Z" fill="#ECECEC"/>
<path d="M92.4443 1.04492H93.9672C93.976 1.19149 93.9892 1.31607 93.9892 1.44504C93.9892 5.20788 93.9916 8.96974 93.9965 12.7306C93.9965 13.0589 93.8983 13.2055 93.5568 13.1821C93.2768 13.163 92.9896 13.2099 92.717 13.163C92.5997 13.1425 92.4238 12.9637 92.4238 12.8567C92.4238 11.0803 92.4414 9.30245 92.4473 7.52607C92.4473 5.68667 92.4473 3.84726 92.4473 2.00786L92.4443 1.04492Z" fill="#ECECEC"/>
</svg>

<svg width="117" height="14" fill="none" xmlns="http://www.w3.org/2000/svg"><path d="M95.243 1.023c.345 0 .673-.057.968.02.202.052.386.267.527.449.927 1.187 1.837 2.386 2.757 3.578.921 1.191 1.822 2.336 2.723 3.508.43.559.834 1.136 1.259 1.698.113.1.238.187.371.258V1.038h1.319c.009.174.022.328.022.482v11.033c0 .616-.353.855-.929.573a2.222 2.222 0 0 1-.733-.605c-.916-1.15-1.807-2.322-2.705-3.485L98.037 5.44c-.402-.52-.795-1.047-1.202-1.563a1.1 1.1 0 0 0-.293-.176v8.963c0 .508 0 .52-.507.517-.88 0-.828.126-.827-.813.006-3.667.006-7.332 0-10.993.012-.111.025-.217.035-.353zm18.072 6.33h3.686v4.305c0 .293-.134.447-.374.593a7.107 7.107 0 0 1-2.492.899c-.675.118-1.386.042-2.079.073a5.19 5.19 0 0 1-2.754-.655 5.781 5.781 0 0 1-2.492-2.693c-.616-1.319-.611-2.677-.526-4.055.032-.516.23-1.035.418-1.527a4.73 4.73 0 0 1 1.338-1.963 8.323 8.323 0 0 1 1.758-1.098c1.358-.65 2.825-.542 4.251-.387.988.109 1.874.587 2.653 1.226.036.029.094.09.083.111a4.719 4.719 0 0 1-.439.87c-.065.089-.355.087-.497.024-.371-.161-.702-.412-1.073-.569-1.026-.44-2.052-.622-3.2-.406-.998.188-1.836.587-2.503 1.286-.626.66-1.055 1.466-1.111 2.414-.031.526-.214 1.057-.167 1.57.146 1.648.68 3.146 2.198 4.034a4.917 4.917 0 0 0 3.78.516 11.91 11.91 0 0 0 1.519-.479.643.643 0 0 0 .35-.44c.037-.716.021-1.436.015-2.154 0-.274-.166-.387-.428-.386-.477 0-.953-.013-1.428 0-.344.012-.498-.127-.484-.47.005-.207-.002-.41-.002-.64zM71.59 12.93c1.612-3.957 3.213-7.915 4.844-11.926.505 0 1.026-.02 1.542.015.111.007.252.187.309.318.33.765.649 1.536.956 2.312.22.556.409 1.126.633 1.682.224.555.492 1.109.722 1.67.23.562.44 1.142.657 1.71.214.545.44 1.084.66 1.626.174.433.343.868.521 1.299.18.43.373.88.594 1.394-.55.036-1.055.146-1.546-.094a.554.554 0 0 1-.203-.28c-.31-.733-.615-1.479-.919-2.22-.026-.065-.022-.146-.046-.21-.115-.312-.264-.541-.669-.537-1.55.018-3.1.015-4.65 0-.364 0-.601.124-.733.463-.293.774-.594 1.545-.87 2.324-.146.428-.292.573-.754.586-.324.012-.648 0-.97 0l-.078-.132zm5.624-10.273c-.14.427-.23.75-.35 1.06-.294.756-.606 1.51-.914 2.261-.239.587-.52 1.157-.71 1.76-.09.292-.439.559-.204.93h4.581c-.586-1.971-1.527-3.742-2.11-5.639-.03-.114-.153-.199-.293-.372zM70.619.897v1.242h-5.833v4.182c.18.012.335.032.49.032h3.847c.473 0 .485.013.485.5v.632h-4.806v4.397h5.831c.014.376.008.753-.017 1.128-.009.07-.248.161-.381.163-1.44.012-2.882.007-4.32.007-.77 0-1.54-.011-2.308 0-.328.008-.426-.13-.426-.44V1.227c0-.243.063-.392.347-.391h6.81c.095.015.189.036.28.062zM18.998 6.35h4.722l.077 1.141H19.01v4.397h5.85c.013.375.007.75-.018 1.123-.009.07-.245.166-.377.167-1.207.013-2.417.008-3.624.008-1 0-2-.01-3.002 0-.317 0-.44-.112-.44-.424V1.253c0-.265.077-.409.374-.407h6.771c.099.008.197.023.294.044v1.24h-5.841v4.22zM26.131.885c.19-.015.332-.035.476-.035h6.554c.512 0 .535.026.534.538v.293c.037.356-.135.47-.473.469-1.673-.01-3.345 0-5.017 0-.167 0-.335.02-.532.033-.017.162-.038.294-.04.42 0 1.096.009 2.198-.007 3.288 0 .35.123.475.47.472 1.32-.011 2.638 0 3.957 0h.455v1.12c-.156.009-.293.022-.44.024h-3.92c-.439 0-.514.067-.514.505v3.4c0 .12.014.24.024.417.185.039.373.065.563.077h4.983c.47 0 .497.03.495.499 0 .783 0 .783-.782.783h-6.298c-.487 0-.509-.018-.509-.483V1.34c-.004-.138.01-.27.02-.454zm64.213 2.157a5.422 5.422 0 0 1-.77-.397c-.719-.529-1.512-.79-2.4-.671-1.076.146-1.894.835-1.973 1.905-.056.765.545 1.377 1.113 1.645.644.305 1.333.514 1.993.79.612.238 1.21.513 1.788.823a1.98 1.98 0 0 1 .99 1.506c.034.237.156.466.168.702.078 1.514-.966 3.086-2.383 3.623-.953.36-1.956.335-2.919.19a4.618 4.618 0 0 1-2.557-1.294c-.158-.155-.19-.255-.012-.407a1.38 1.38 0 0 0 .211-.293c.236-.358.522-.421.88-.18.58.428 1.226.756 1.912.973.944.266 2.345-.094 2.939-.927.501-.7.608-1.465.198-2.235a1.567 1.567 0 0 0-.652-.646c-.557-.268-1.163-.44-1.737-.672-.773-.312-1.621-.461-2.278-1.025-.656-.565-1.08-1.195-1.026-2.09.022-.363-.063-.754.041-1.088.14-.453.36-.878.647-1.255C85.32.993 86.447.713 87.706.743c.923.02 1.787.186 2.582.677.622.382.69.573.324 1.194-.067.115-.133.214-.268.428zM7.168 6.582V7.78c-.223-.01-.412-.026-.603-.026h-3.81c-.587 0-.67.083-.67.677v4.544H.473V1.395c0-.556 0-.568.574-.568h6.555c.518 0 .538.022.535.534 0 .69 0 .689-.708.689h-4.65c-.233.02-.464.059-.69.117v3.857c0 .488.05.54.55.54h4.066c.142-.002.285.01.463.019zm33.149 6.367h-1.635V2.165h-3.906V.856h9.527V2.13H40.38a4.48 4.48 0 0 0-.112.666c-.006 3.155-.006 6.309 0 9.463-.001.215.03.43.049.69zm6.028-7.155l-.04-.2c-.633-.164-.9-.664-1.153-1.172-.205-.408-.224-.85-.227-1.303a2.14 2.14 0 0 1 1.04-1.897 3.651 3.651 0 0 1 2.955-.48c.377.09.733.147 1.026.427.047.047.159.027.255.038l.075-.403.094.01v2.328l-.073.024a5.652 5.652 0 0 1-.228-.743c-.098-.587-.485-.93-.954-1.207-.501-.293-1.073-.293-1.594-.186a1.986 1.986 0 0 0-1.454 1.193 2.51 2.51 0 0 0-.156 1.376c.096.807.477 1.485 1.2 1.888.323.179.734.21 1.173.33-.089.06-.185.11-.286.147-.344.06-.697.082-1.036.165a2.241 2.241 0 0 0-1.416 1.085 4.642 4.642 0 0 0-.6 2.47c.048 1.292.586 2.346 1.777 2.903.741.36 1.578.473 2.388.32.6-.112 1.172-.232 1.677-.559a2.666 2.666 0 0 0 1.269-1.945c.146-1.082-.179-1.929-1.061-2.558a1.73 1.73 0 0 0-2.215.13c-.17.168-.236.45-.327.687a1.374 1.374 0 0 0-.04.35l-.127.053c-.069-.116-.202-.235-.195-.346.047-.778.245-1.494 1.064-1.813.415-.17.846-.297 1.287-.38.622-.105 1.256-.132 1.884-.203.989-.112 1.434-.546 1.626-1.563a.671.671 0 0 1 .09-.173l.12.01c0 .41-.019.826 0 1.238.04.68-.35 1.122-.88 1.396-.364.19-.829.203-1.252.269a4.166 4.166 0 0 1-.635 0l-.035.1c.147.14.287.286.417.44.415.543.642 1.206.648 1.89.044 1.307-.57 2.222-1.633 2.855-.4.239-.914.277-1.352.461-.72.305-1.475.27-2.199.154-1.25-.199-2.434-.604-3.19-1.745-.292-.44-.547-.888-.537-1.44.01-.55-.087-1.122.05-1.637.24-.91.714-1.725 1.558-2.233.397-.206.805-.39 1.222-.551zm-35.431 6.101h5.3c.015.353.01.707-.016 1.06-.01.088-.216.214-.336.217-.683.02-1.366.01-2.052.01H9.75c-.406 0-.526-.122-.526-.517V1.372c0-.096.011-.19.02-.32H10.8V11.31c.02.198.059.394.114.585zM55.011 1.041h1.465c.01.189.025.356.025.521v9.754c0 .516.038.56.565.562h4.354c.167 0 .336.019.556.03 0 .365.013.701 0 1.037-.015.262-.235.234-.417.234h-6.227c-.244 0-.356-.085-.356-.34V1.222c.008-.06.02-.122.035-.181zm37.433.004h1.523c.009.146.022.271.022.4 0 3.763.003 7.525.007 11.286 0 .328-.098.475-.44.451-.28-.019-.566.028-.839-.019-.117-.02-.293-.2-.293-.306 0-1.777.017-3.555.023-5.33v-5.52l-.003-.962z" fill="#ECECEC"/></svg>
